packages/ui-icons/svg/Solid/outdent.svg

<svg viewBox="0 0 1920 1920" version="1.1" xmlns="http://www.w3.org/2000/svg">
    <path d="M1920,1518.81271 L1920,1744.69506 L112.941176,1744.69506 L112.941176,1518.81271 L1920,1518.81271 Z M1920,1066.93506 L1920,1292.93035 L112.941176,1292.93035 L112.941176,1066.93506 L1920,1066.93506 Z M515.655529,112.954824 L515.655529,389.434824 L790.554353,389.434824 L790.554353,615.317176 L515.655529,615.317176 L515.655529,891.684235 L-0.0338823529,502.376 L515.655529,112.954824 Z M1920,615.283294 L1920,841.165647 L903.529412,841.165647 L903.529412,615.283294 L1920,615.283294 Z M1920,163.405647 L1920,389.400941 L903.529412,389.400941 L903.529412,163.405647 L1920,163.405647 Z" stroke="none" stroke-width="1" fill-rule="evenodd"/>
</svg>

<svg viewBox="0 0 1920 1920" xmlns="http://www.w3.org/2000/svg">
    <path d="M1920 1518.813v225.882H112.941v-225.882H1920Zm0-451.878v225.995H112.941v-225.995H1920ZM515.656 112.955v276.48h274.898v225.882H515.656v276.367L-.034 502.376l515.69-389.421ZM1920 615.283v225.883H903.53V615.283H1920Zm0-451.877V389.4H903.53V163.406H1920Z" fill-rule="evenodd"/>
</svg>
